assets/images/footer/github.svg

<svg width="18" height="20" viewBox="0 0 18 20" fill="none" xmlns="http://www.w3.org/2000/svg">
<path d="M17.9852 7.46114C17.9852 6.32124 17.6192 5.25043 16.9205 4.31779C17.1867 3.41969 17.2532 2.27979 17.1867 0.967185C17.1534 0.414508 16.7209 0 16.1885 0C15.8891 0 13.3604 0.0345423 11.8965 1.38169C10.6321 1.1399 9.30128 1.1399 8.00368 1.38169C6.573 0.0345423 4.04435 0 3.71163 0C3.17928 0 2.74675 0.414508 2.71348 0.967185C2.61366 2.27979 2.71348 3.41969 2.97965 4.31779C2.28095 5.28497 1.91496 6.35579 1.91496 7.46114C1.91496 9.8791 3.71163 12.0553 6.43991 13.0915C6.3401 13.2988 6.27355 13.5406 6.20701 13.7824C3.31237 13.4715 1.94823 10.7427 1.88169 10.639C1.64878 10.1209 1.04989 9.91364 0.550818 10.19C0.0517425 10.4318 -0.147888 11.0535 0.118286 11.5717C0.184829 11.7444 2.01477 15.4404 6.04065 15.8549V18.9637C6.04065 19.5509 6.47319 20 7.0388 20H12.8614C13.427 20 13.8595 19.5509 13.8595 18.9637V14.8532C13.8595 14.2314 13.7264 13.6442 13.4935 13.1261C16.1885 12.0553 17.9852 9.91364 17.9852 7.46114Z" fill="#CFCFCF"/>
</svg>

<svg width="18" height="20" fill="none" xmlns="http://www.w3.org/2000/svg"><path d="M17.985 7.461c0-1.14-.366-2.21-1.064-3.143.266-.898.332-2.038.266-3.35C17.153.414 16.72 0 16.189 0c-.3 0-2.829.035-4.293 1.382a10.536 10.536 0 0 0-3.892 0C6.573.035 4.044 0 3.712 0c-.533 0-.965.415-.999.967-.1 1.313 0 2.453.267 3.35-.7.968-1.065 2.039-1.065 3.144 0 2.418 1.797 4.594 4.525 5.63-.1.208-.166.45-.233.691-2.895-.31-4.259-3.04-4.325-3.143A.942.942 0 0 0 .55 10.19c-.5.242-.699.864-.433 1.382.067.172 1.897 3.868 5.923 4.283v3.109c0 .587.432 1.036.998 1.036h5.822c.566 0 .998-.45.998-1.036v-4.11c0-.623-.133-1.21-.366-1.728 2.696-1.07 4.492-3.212 4.492-5.665z" fill="#CFCFCF"/></svg>
